lib/brands/logos/storybook.svg

<svg xmlns="http://www.w3.org/2000/svg" fill="none" aria-hidden="true" viewBox="0 0 229 51"><g id="Storybook"><g id="Group"><path id="Vector" fill="#333333" d="M64.9682 37.8093C63.1588 37.8093 61.4173 37.5662 59.7436 37.0799C58.0699 36.5936 56.6789 35.9208 55.5707 35.0613L57.267 31.2956C59.5739 32.9014 62.1636 33.7043 65.036 33.7043C66.5288 33.7043 67.6766 33.4612 68.4795 32.9749C69.2824 32.4886 69.6839 31.8158 69.6839 30.9563C69.6839 30.1873 69.3163 29.5879 68.5813 29.1582C67.8462 28.7285 66.5401 28.3101 64.6628 27.903C62.5594 27.4732 60.8801 26.953 59.6248 26.3424C58.3696 25.7317 57.4536 24.9797 56.8768 24.0863C56.3001 23.1929 56.0117 22.0903 56.0117 20.7785C56.0117 19.331 56.4132 18.0418 57.2161 16.911C58.019 15.7801 59.1442 14.8924 60.5917 14.2478C62.0392 13.6032 63.7129 13.2809 65.6128 13.2809C67.3091 13.2809 68.9431 13.5297 70.5151 14.0273C72.087 14.5248 73.3366 15.192 74.2639 16.0289L72.5676 19.7947C70.3737 18.1888 68.0667 17.3859 65.6467 17.3859C64.267 17.3859 63.1814 17.6517 62.3898 18.1832C61.5982 18.7147 61.2024 19.4441 61.2024 20.3714C61.2024 20.9142 61.355 21.3609 61.6604 21.7115C61.9657 22.062 62.4746 22.373 63.187 22.6444C63.8995 22.9158 64.9116 23.1986 66.2234 23.4926C69.2994 24.1711 71.5102 25.0419 72.8559 26.1049C74.2017 27.1679 74.8745 28.638 74.8745 30.5153C74.8745 32.777 74.0038 34.5581 72.2622 35.8586C70.5207 37.1591 68.0894 37.8093 64.9682 37.8093ZM87.1557 34.0096C87.6759 34.0096 88.2187 33.9757 88.7842 33.9078L88.5128 37.6397C87.8568 37.7302 87.201 37.7754 86.5451 37.7754C84.0119 37.7754 82.163 37.2213 80.9982 36.113C79.8334 35.0048 79.251 33.3198 79.251 31.0581V24.68H76.0959V20.8464H79.251V15.961H84.3738V20.8464H88.5467V24.68H84.3738V31.0241C84.3738 33.0145 85.3011 34.0096 87.1557 34.0096ZM99.0637 37.7754C97.2996 37.7754 95.7503 37.4192 94.4159 36.7067C93.0814 35.9943 92.0524 34.9878 91.3286 33.6873C90.6049 32.3868 90.243 30.8545 90.243 29.0904C90.243 27.3262 90.6049 25.7939 91.3286 24.4934C92.0524 23.1929 93.0814 22.1921 94.4159 21.491C95.7503 20.7898 97.2996 20.4393 99.0637 20.4393C100.828 20.4393 102.377 20.7898 103.712 21.491C105.046 22.1921 106.075 23.1929 106.799 24.4934C107.523 25.7939 107.884 27.3262 107.884 29.0904C107.884 30.8545 107.523 32.3868 106.799 33.6873C106.075 34.9878 105.046 35.9943 103.712 36.7067C102.377 37.4192 100.828 37.7754 99.0637 37.7754ZM99.0637 33.8739C101.552 33.8739 102.796 32.2794 102.796 29.0904C102.796 27.4845 102.473 26.2858 101.829 25.4942C101.184 24.7026 100.262 24.3068 99.0637 24.3068C96.5758 24.3068 95.3319 25.9013 95.3319 29.0904C95.3319 32.2794 96.5758 33.8739 99.0637 33.8739ZM122.065 24.6461L119.182 24.9514C117.757 25.0871 116.75 25.4886 116.162 26.1558C115.574 26.823 115.28 27.7107 115.28 28.819V37.504H110.157V20.8464H115.077V23.6622C115.914 21.7397 117.644 20.688 120.267 20.5071L121.76 20.4053L122.065 24.6461ZM136.951 20.8803H141.972L131.929 43.6107H126.739L129.928 36.588L123.075 20.8803H128.401L132.608 31.4652L136.951 20.8803ZM153.846 20.4393C155.293 20.4393 156.571 20.7898 157.679 21.491C158.787 22.1921 159.653 23.1929 160.275 24.4934C160.897 25.7939 161.208 27.3036 161.208 29.0225C161.208 30.7414 160.897 32.2624 160.275 33.5855C159.653 34.9087 158.782 35.9377 157.662 36.6728C156.543 37.4079 155.271 37.7754 153.846 37.7754C152.692 37.7754 151.652 37.5323 150.724 37.046C149.797 36.5597 149.085 35.8869 148.587 35.0274V37.504H143.532V13.5862H148.655V23.0855C149.153 22.2486 149.859 21.5984 150.775 21.1347C151.691 20.6711 152.715 20.4393 153.846 20.4393ZM152.353 33.8739C153.552 33.8739 154.479 33.4498 155.135 32.6017C155.791 31.7535 156.119 30.5605 156.119 29.0225C156.119 27.5071 155.791 26.348 155.135 25.5451C154.479 24.7422 153.552 24.3407 152.353 24.3407C151.154 24.3407 150.227 24.7535 149.571 25.579C148.915 26.4046 148.587 27.575 148.587 29.0904C148.587 30.6283 148.915 31.8101 149.571 32.6356C150.227 33.4612 151.154 33.8739 152.353 33.8739ZM172.335 37.7754C170.571 37.7754 169.022 37.4192 167.687 36.7067C166.353 35.9943 165.324 34.9878 164.6 33.6873C163.876 32.3868 163.514 30.8545 163.514 29.0904C163.514 27.3262 163.876 25.7939 164.6 24.4934C165.324 23.1929 166.353 22.1921 167.687 21.491C169.022 20.7898 170.571 20.4393 172.335 20.4393C174.099 20.4393 175.649 20.7898 176.983 21.491C178.318 22.1921 179.347 23.1929 180.07 24.4934C180.794 25.7939 181.156 27.3262 181.156 29.0904C181.156 30.8545 180.794 32.3868 180.07 33.6873C179.347 34.9878 178.318 35.9943 176.983 36.7067C175.649 37.4192 174.099 37.7754 172.335 37.7754ZM172.335 33.8739C174.823 33.8739 176.067 32.2794 176.067 29.0904C176.067 27.4845 175.745 26.2858 175.1 25.4942C174.456 24.7026 173.534 24.3068 172.335 24.3068C169.847 24.3068 168.603 25.9013 168.603 29.0904C168.603 32.2794 169.847 33.8739 172.335 33.8739ZM191.436 37.7754C189.671 37.7754 188.122 37.4192 186.788 36.7067C185.453 35.9943 184.424 34.9878 183.7 33.6873C182.977 32.3868 182.615 30.8545 182.615 29.0904C182.615 27.3262 182.977 25.7939 183.7 24.4934C184.424 23.1929 185.453 22.1921 186.788 21.491C188.122 20.7898 189.671 20.4393 191.436 20.4393C193.2 20.4393 194.749 20.7898 196.083 21.491C197.418 22.1921 198.447 23.1929 199.171 24.4934C199.894 25.7939 200.256 27.3262 200.256 29.0904C200.256 30.8545 199.894 32.3868 199.171 33.6873C198.447 34.9878 197.418 35.9943 196.083 36.7067C194.749 37.4192 193.2 37.7754 191.436 37.7754ZM191.436 33.8739C193.923 33.8739 195.167 32.2794 195.167 29.0904C195.167 27.4845 194.845 26.2858 194.201 25.4942C193.556 24.7026 192.634 24.3068 191.436 24.3068C188.948 24.3068 187.704 25.9013 187.704 29.0904C187.704 32.2794 188.948 33.8739 191.436 33.8739ZM220.519 37.504H214.242L207.864 30.0742V37.504H202.741V13.5862H207.864V27.9708L214.005 20.8803H220.111L213.123 28.819L220.519 37.504Z"/><g id="Group_2"><mask id="mask0_93_16003" width="35" height="43" x="8" y="4" maskUnits="userSpaceOnUse" style="mask-type:alpha"><g id="mask-2"><path id="Vector_2" fill="white" d="M9.79673 43.3177L8.48303 8.31373C8.43965 7.15768 9.32606 6.17795 10.4807 6.10578L40.254 4.24495C41.4293 4.17149 42.4416 5.06468 42.515 6.23993C42.5178 6.28421 42.5192 6.32856 42.5192 6.37293V44.516C42.5192 45.6935 41.5646 46.6481 40.387 46.6481C40.3551 46.6481 40.3232 46.6474 40.2914 46.646L11.8317 45.3678C10.7233 45.318 9.83834 44.4265 9.79673 43.3177Z"/></g></mask><g mask="url(#mask0_93_16003)"><path id="Vector_3" fill="#FF4785" d="M9.79673 43.3177L8.48303 8.31373C8.43965 7.15768 9.32606 6.17795 10.4807 6.10578L40.254 4.24495C41.4293 4.17149 42.4416 5.06468 42.515 6.23993C42.5178 6.28421 42.5192 6.32856 42.5192 6.37293V44.516C42.5192 45.6935 41.5646 46.6481 40.387 46.6481C40.3551 46.6481 40.3232 46.6474 40.2914 46.646L11.8317 45.3678C10.7233 45.318 9.83834 44.4265 9.79673 43.3177Z"/><path id="Vector_4" fill="white" d="M33.6157 9.45327L33.8191 4.56198L37.9079 4.24072L38.084 9.28494C38.0902 9.46049 37.9528 9.60777 37.7773 9.6139C37.7021 9.61652 37.6284 9.59242 37.5694 9.54588L35.9926 8.30376L34.1257 9.71988C33.9858 9.82604 33.7863 9.79865 33.6801 9.6587C33.6354 9.59979 33.6127 9.52715 33.6157 9.45327ZM28.3866 20.2247C28.3866 21.0542 33.9741 20.6566 34.7242 20.0739C34.7242 14.4251 31.6932 11.4567 26.1428 11.4567C20.5925 11.4567 17.4827 14.4712 17.4827 18.9931C17.4827 26.8687 28.111 27.0194 28.111 31.3152C28.111 32.521 27.5206 33.237 26.2215 33.237C24.5289 33.237 23.8597 32.3725 23.9384 29.4333C23.9384 28.7957 17.4827 28.5969 17.2859 29.4333C16.7847 36.5561 21.2223 38.6105 26.3003 38.6105C31.2208 38.6105 35.0785 35.9878 35.0785 31.2398C35.0785 22.799 24.2927 23.0251 24.2927 18.8424C24.2927 17.1467 25.5524 16.9206 26.3003 16.9206C27.0876 16.9206 28.5047 17.0594 28.3866 20.2247Z"/></g></g></g></g></svg>

<svg xmlns="http://www.w3.org/2000/svg" fill="none" aria-hidden="true" viewBox="0 0 229 51"><path fill="#333" d="M64.968 37.81c-1.81 0-3.55-.244-5.224-.73-1.674-.486-3.065-1.16-4.173-2.019l1.696-3.765c2.307 1.605 4.897 2.408 7.769 2.408 1.493 0 2.64-.243 3.444-.73.802-.485 1.204-1.158 1.204-2.018 0-.769-.368-1.368-1.103-1.798-.735-.43-2.04-.848-3.918-1.255-2.104-.43-3.783-.95-5.038-1.56-1.255-.611-2.171-1.363-2.748-2.257-.577-.893-.865-1.996-.865-3.307 0-1.448.401-2.737 1.204-3.868.803-1.13 1.928-2.019 3.376-2.663 1.447-.645 3.12-.967 5.02-.967 1.697 0 3.331.249 4.903.746 1.572.498 2.822 1.165 3.749 2.002l-1.696 3.766c-2.194-1.606-4.501-2.41-6.921-2.41-1.38 0-2.466.267-3.257.798-.792.532-1.188 1.261-1.188 2.188 0 .543.153.99.458 1.34.306.351.815.662 1.527.933.713.272 1.725.555 3.036.849 3.076.678 5.287 1.549 6.633 2.612 1.346 1.063 2.019 2.533 2.019 4.41 0 2.262-.871 4.043-2.613 5.344-1.741 1.3-4.173 1.95-7.294 1.95Zm22.188-3.8c.52 0 1.063-.034 1.628-.102l-.271 3.732a14.38 14.38 0 0 1-1.968.135c-2.533 0-4.382-.554-5.547-1.662-1.165-1.108-1.747-2.793-1.747-5.055V24.68h-3.155v-3.834h3.155v-4.885h5.123v4.885h4.173v3.834h-4.173v6.344c0 1.99.927 2.986 2.782 2.986Zm11.908 3.765c-1.764 0-3.314-.356-4.648-1.068a7.494 7.494 0 0 1-3.087-3.02c-.724-1.3-1.086-2.832-1.086-4.597 0-1.764.362-3.296 1.086-4.597a7.387 7.387 0 0 1 3.087-3.002c1.334-.701 2.884-1.052 4.648-1.052 1.764 0 3.313.35 4.648 1.052a7.39 7.39 0 0 1 3.087 3.002c.724 1.3 1.085 2.833 1.085 4.597 0 1.765-.361 3.297-1.085 4.597a7.497 7.497 0 0 1-3.087 3.02c-1.335.712-2.884 1.068-4.648 1.068Zm0-3.901c2.488 0 3.732-1.595 3.732-4.784 0-1.605-.323-2.804-.967-3.596-.645-.791-1.567-1.187-2.765-1.187-2.488 0-3.732 1.594-3.732 4.783 0 3.19 1.244 4.784 3.732 4.784Zm23.001-9.228-2.883.305c-1.425.136-2.432.538-3.02 1.205-.588.667-.882 1.555-.882 2.663v8.685h-5.123V20.846h4.92v2.816c.837-1.922 2.567-2.974 5.19-3.155l1.493-.102.305 4.241Zm14.886-3.766h5.021l-10.043 22.73h-5.19l3.189-7.022-6.853-15.708h5.326l4.207 10.585 4.343-10.585Zm16.895-.44c1.447 0 2.725.35 3.833 1.051s1.974 1.702 2.596 3.002c.622 1.3.933 2.81.933 4.53 0 1.718-.311 3.24-.933 4.563-.622 1.323-1.493 2.352-2.613 3.087-1.119.735-2.391 1.102-3.816 1.102-1.154 0-2.194-.243-3.122-.729-.927-.486-1.639-1.16-2.137-2.019v2.477h-5.055V13.586h5.123v9.5c.498-.837 1.204-1.488 2.12-1.951.916-.464 1.94-.696 3.071-.696Zm-1.493 13.434c1.199 0 2.126-.424 2.782-1.272.656-.848.984-2.041.984-3.58 0-1.515-.328-2.674-.984-3.477-.656-.803-1.583-1.204-2.782-1.204s-2.126.412-2.782 1.238c-.656.826-.984 1.996-.984 3.511 0 1.538.328 2.72.984 3.546.656.825 1.583 1.238 2.782 1.238Zm19.982 3.901c-1.764 0-3.313-.356-4.648-1.068a7.497 7.497 0 0 1-3.087-3.02c-.724-1.3-1.086-2.832-1.086-4.597 0-1.764.362-3.296 1.086-4.597a7.39 7.39 0 0 1 3.087-3.002c1.335-.701 2.884-1.052 4.648-1.052 1.764 0 3.314.35 4.648 1.052a7.378 7.378 0 0 1 3.087 3.002c.724 1.3 1.086 2.833 1.086 4.597 0 1.765-.362 3.297-1.086 4.597a7.485 7.485 0 0 1-3.087 3.02c-1.334.712-2.884 1.068-4.648 1.068Zm0-3.901c2.488 0 3.732-1.595 3.732-4.784 0-1.605-.322-2.804-.967-3.596-.644-.791-1.566-1.187-2.765-1.187-2.488 0-3.732 1.594-3.732 4.783 0 3.19 1.244 4.784 3.732 4.784Zm19.101 3.901c-1.765 0-3.314-.356-4.648-1.068a7.494 7.494 0 0 1-3.088-3.02c-.723-1.3-1.085-2.832-1.085-4.597 0-1.764.362-3.296 1.085-4.597a7.387 7.387 0 0 1 3.088-3.002c1.334-.701 2.883-1.052 4.648-1.052 1.764 0 3.313.35 4.647 1.052a7.387 7.387 0 0 1 3.088 3.002c.723 1.3 1.085 2.833 1.085 4.597 0 1.765-.362 3.297-1.085 4.597a7.494 7.494 0 0 1-3.088 3.02c-1.334.712-2.883 1.068-4.647 1.068Zm0-3.901c2.487 0 3.731-1.595 3.731-4.784 0-1.605-.322-2.804-.966-3.596-.645-.791-1.567-1.187-2.765-1.187-2.488 0-3.732 1.594-3.732 4.783 0 3.19 1.244 4.784 3.732 4.784Zm29.083 3.63h-6.277l-6.378-7.43v7.43h-5.123V13.586h5.123v14.385l6.141-7.09h6.106l-6.988 7.938 7.396 8.685Z"/><mask id="a" width="35" height="43" x="8" y="4" maskUnits="userSpaceOnUse" style="mask-type:alpha"><path fill="#fff" d="M9.797 43.318 8.483 8.314a2.132 2.132 0 0 1 1.998-2.208l29.773-1.861a2.132 2.132 0 0 1 2.265 2.128v38.143a2.132 2.132 0 0 1-2.228 2.13l-28.46-1.278a2.132 2.132 0 0 1-2.034-2.05Z"/></mask><g mask="url(#a)"><path fill="#FF4785" d="M9.797 43.318 8.483 8.314a2.132 2.132 0 0 1 1.998-2.208l29.773-1.861a2.132 2.132 0 0 1 2.265 2.128v38.143a2.132 2.132 0 0 1-2.228 2.13l-28.46-1.278a2.132 2.132 0 0 1-2.034-2.05Z"/><path fill="#fff" d="m33.616 9.453.203-4.891 4.089-.321.176 5.044a.318.318 0 0 1-.515.26l-1.576-1.241-1.867 1.416a.318.318 0 0 1-.51-.267Zm-5.23 10.772c0 .83 5.588.432 6.338-.151 0-5.649-3.03-8.617-8.581-8.617-5.55 0-8.66 3.014-8.66 7.536 0 7.876 10.628 8.026 10.628 12.322 0 1.206-.59 1.922-1.89 1.922-1.692 0-2.361-.864-2.283-3.804 0-.637-6.455-.836-6.652 0-.501 7.123 3.936 9.178 9.014 9.178 4.92 0 8.778-2.623 8.778-7.371 0-8.441-10.785-8.215-10.785-12.398 0-1.695 1.26-1.921 2.007-1.921.788 0 2.205.138 2.087 3.304Z"/></g></svg>
